app/dist/common/images/jinduicheng-molybdenum-coltd.svg

<svg height="18" viewBox="0 0 18 18" width="18" xmlns="http://www.w3.org/2000/svg"><path d="m0 0h18v18h-18z" fill="#f0f3fa"/><path d="m7.6 7h-1.75l-1.22 2.46c-.29.5-.7.62-.88.62h-1.4l-.35.92h2.45c.98 0 1.58-.62 1.75-.92zm.11.62.27-.62h3.04c.55 0 .79.28.78.62h-4.1zm-.14.3-.13.31h1.35l.13-.3h-1.35zm2.59 0c0 .06-.02.11-.03.16l-.07.15h1.53l.14-.3h-1.57zm1.29.62h-1.52l-.13.3h1.5zm-.29.61h-1.49l-.13.31h1.48l.14-.3zm-.28.62h-1.48a.65.65 0 0 1 -.53.3h-.9l.14-.3h-1.36l-.55 1.23h3.2c.3 0 .97-.15 1.25-.77l.22-.46zm-3.99-.31h1.36l.14-.3h-1.37zm.27-.61h1.36l.13-.31h-1.35l-.14.3zm8.5-1.23.34-.62h-2.74c-.22 0-.71.12-.85.62zm-1.97.3h-1.43l-.15.31h1.42l.08-.15c.01-.05.04-.1.08-.16zm-.31.62h-1.42l-.15.3h1.42zm-.3.61h-1.42l-.15.31h1.41l.15-.3zm-.25.62h-1.47l-.15.3c-.17.31-.27.93.69.93h3.07l.35-.92h-2.06c-.17 0-.43-.07-.43-.31z" fill="#022a6f"/></svg>

<!-- by TradingView --><svg width="18" height="18" viewBox="0 0 18 18" xmlns="http://www.w3.org/2000/svg"><path fill="#F0F3FA" d="M0 0h18v18H0z"/><path d="M7.6 7H5.85L4.63 9.46c-.29.5-.7.62-.88.62h-1.4L2 11h2.45c.98 0 1.58-.62 1.75-.92L7.6 7ZM7.71 7.62 7.98 7h3.04c.55 0 .79.28.78.62H7.7ZM7.57 7.92l-.13.31h1.35l.13-.3H7.57ZM10.16 7.92c0 .06-.02.11-.03.16l-.07.15h1.53l.14-.3h-1.57ZM11.45 8.54H9.93l-.13.3h1.5l.15-.3ZM11.16 9.15H9.67l-.13.31h1.48l.14-.3ZM10.88 9.77H9.4a.65.65 0 0 1-.53.3h-.9l.14-.3H6.75L6.2 11H9.4c.3 0 .97-.15 1.25-.77l.22-.46ZM6.89 9.46h1.36l.14-.3H7.02l-.13.3ZM7.16 8.85h1.36l.13-.31H7.3l-.14.3ZM15.66 7.62 16 7h-2.74c-.22 0-.71.12-.85.62h3.25Zm-1.97.3h-1.43l-.15.31h1.42l.08-.15c.01-.05.04-.1.08-.16Zm-.31.62h-1.42l-.15.3h1.42l.15-.3Zm-.3.61h-1.42l-.15.31h1.41l.15-.3Zm-.25.62h-1.47l-.15.3c-.17.31-.27.93.69.93h3.07l.35-.92h-2.06c-.17 0-.43-.07-.43-.31Z" fill="#022A6F"/></svg>
